src/places/symbolic/folder-pictures-symbolic.svg

<?xml version="1.0" encoding="UTF-8" standalone="no"?>
<svg
   width="16"
   height="16"
   version="1.1"
   viewBox="0 0 16 16"
   id="svg9"
   sodipodi:docname="folder-pictures-symbolic.svg"
   inkscape:version="1.1 (c4e8f9ed74, 2021-05-24)"
   xmlns:inkscape="http://www.inkscape.org/namespaces/inkscape"
   xmlns:sodipodi="http://sodipodi.sourceforge.net/DTD/sodipodi-0.dtd"
   xmlns:xlink="http://www.w3.org/1999/xlink"
   xmlns="http://www.w3.org/2000/svg"
   xmlns:svg="http://www.w3.org/2000/svg">
  <sodipodi:namedview
     id="namedview11"
     pagecolor="#ffffff"
     bordercolor="#999999"
     borderopacity="1"
     inkscape:pageshadow="0"
     inkscape:pageopacity="0"
     inkscape:pagecheckerboard="0"
     showgrid="false"
     inkscape:zoom="9.269728"
     inkscape:cx="-22.168935"
     inkscape:cy="18.339265"
     inkscape:window-width="1920"
     inkscape:window-height="997"
     inkscape:window-x="0"
     inkscape:window-y="0"
     inkscape:window-maximized="1"
     inkscape:current-layer="svg9" />
  <defs
     id="defs3">
    <style
       id="current-color-scheme"
       type="text/css">.ColorScheme-Text { color:#363636; } .ColorScheme-Text { color:#363636; }</style>
    <linearGradient
       id="linearGradient873"
       x1="-48.646"
       x2="-32.771999"
       y1="-6.3007002"
       y2="9.5740004"
       gradientTransform="matrix(1.0078741,0,0,1.0078741,49.029467,6.350299)"
       gradientUnits="userSpaceOnUse">
      <stop
         stop-color="#28afea"
         offset="0"
         id="stop2"
         style="stop-color:#1a9de2;stop-opacity:0.99607843" />
      <stop
         stop-color="#838be4"
         offset="1"
         id="stop4"
         style="stop-color:#0669bd;stop-opacity:0.99607843" />
    </linearGradient>
    <linearGradient
       inkscape:collect="always"
       xlink:href="#linearGradient14448"
       id="linearGradient1224"
       gradientUnits="userSpaceOnUse"
       gradientTransform="matrix(0.33678673,0,0,0.33678673,-2.8377161,-2.6916628)"
       x1="33.949287"
       y1="31"
       x2="33.949287"
       y2="56" />
    <linearGradient
       inkscape:collect="always"
       id="linearGradient14448">
      <stop
         style="stop-color:#ffffff;stop-opacity:1"
         offset="0"
         id="stop14444" />
      <stop
         style="stop-color:#e2f2ff;stop-opacity:1"
         offset="1"
         id="stop14446" />
    </linearGradient>
  </defs>
  <g
     fill="#363636"
     stroke-linecap="round"
     stroke-linejoin="round"
     stroke-width="2"
     style="paint-order:stroke fill markers"
     aria-label=""
     id="g7"
     transform="translate(17.515339)">
    <path
       d="M 16,2 V 14 H 0 V 2 Z M 1,3 v 5.2891 l 3.5,-3.4922 5,5 2,-2 3.5,3.4922 V 3 Z m 0,10 h 10.289 l -6.7891,-6.7969 -3.5,3.5078 z m 14,0 v -0.28906 l -3.5,-3.5078 -1.2969,1.2969 2.5078,2.5 z M 12.5,6 Q 12.29688,6 12.14844,5.85156 12,5.70312 12,5.5 12,5.29688 12.14844,5.14844 12.29688,5 12.5,5 12.70312,5 12.85156,5.14844 13,5.29688 13,5.5 13,5.70312 12.85156,5.85156 12.70312,6 12.5,6 Z"
       stroke-width="2"
       id="path5" />
  </g>
  <g
     id="g837"
     transform="matrix(0.875,0,0,0.875,1,1)">
    <rect
       x="0"
       y="0"
       width="16"
       height="16"
       ry="2.2857144"
       fill="url(#linearGradient873)"
       id="rect11"
       style="fill:url(#linearGradient873);stroke-width:1.00787" />
    <path
       id="path1218"
       style="fill:url(#linearGradient1224);fill-opacity:1;stroke:none;stroke-width:0.336787;stroke-linecap:round;stroke-linejoin:round;paint-order:stroke fill markers"
       d="m 8,7.7480469 c -0.215364,0 -0.4306792,0.089612 -0.5957031,0.2675781 L 0.5625,15.392578 C 0.92559186,15.767361 1.4345453,16 2,16 h 12 c 0.565455,0 1.074408,-0.232639 1.4375,-0.607422 L 8.5957031,8.015625 C 8.4306792,7.8376584 8.2153653,7.7480469 8,7.7480469 Z" />
    <circle
       style="fill:#feffff;fill-opacity:1;stroke-width:0.685715;stroke-linecap:round;stroke-linejoin:round;paint-order:stroke fill markers"
       id="circle1220"
       cx="10.857143"
       cy="4"
       r="1.7142856" />
  </g>
</svg>

<svg width="16" height="16" version="1.1" viewBox="0 0 16 16" xmlns="http://www.w3.org/2000/svg">
 <defs>
  <style id="current-color-scheme" type="text/css">.ColorScheme-Text { color:#363636; } .ColorScheme-Text { color:#363636; }</style>
 </defs>
 <g fill="#363636" stroke-linecap="round" stroke-linejoin="round" stroke-width="2" style="paint-order:stroke fill markers" aria-label="">
  <path d="m16 2v12h-16v-12zm-15 1v5.2891l3.5-3.4922 5 5 2-2 3.5 3.4922v-8.2891zm0 10h10.289l-6.7891-6.7969-3.5 3.5078zm14 0v-0.28906l-3.5-3.5078-1.2969 1.2969 2.5078 2.5zm-2.5-7q-0.20312 0-0.35156-0.14844-0.14844-0.14844-0.14844-0.35156t0.14844-0.35156q0.14844-0.14844 0.35156-0.14844t0.35156 0.14844q0.14844 0.14844 0.14844 0.35156t-0.14844 0.35156q-0.14844 0.14844-0.35156 0.14844z" stroke-width="2"/>
 </g>
</svg>
